X: 101
T: Usłysz prośby moje, Boże litościwy,
C: Mikołaj Gomółka
%%abc-version 2.0
%%abcx-abcm2ps-target-version 5.9.1 (29 Sep 2008)
%%abc-creator hum2abc beta
%%abcx-conversion-date 2021/10/04 07:59:09
%%abc-edited-by Anna Matuszewska
%%abcx-initial-encoding-date 2020-02-18
%%humdrum-veritas 3290970135
%%humdrum-veritas-data 2969816702
%%linebreak <none>
%%barnumbers 0
L: 1/4
M: C|
N: Derived from pl-wn--sd-xvi-qu-273--102_gomolka-mikolaj--uslysz-prosby-moje-boze-litosciwy.krn
%%staves [1 2 3 4]
V: 1
V: 2 clef=alto
V: 3 clef=alto
V: 4 clef=bass
K: C
[V:1] E4c6 | 
[V:2] ^C4E6 | 
[V:3] A,4C3B, | 
[V:4] A,,4A,6 [|] 
[V:1] B2A2A2 | 
[V:2] B,2C2A,2 | 
[V:3] CDE4D2 | 
[V:4] ^G,2A,2F,2 [|] 
[V:1] ^G2A2A4 | 
[V:2] B,2A,2F4 | 
[V:3] E2C2>B,2A,2 | 
[V:4] E,2F,2F,3E, [|] 
[V:1] A2>G2F2F2 | 
[V:2] F2E2D4 | 
[V:3] A,2A,2A,4 | 
[V:4] D,2^C,2D,4 [|] 
[V:1] E2B2^c2c2 | 
[V:2] ^C2E2E2E2 | 
[V:3] A,2B,2A,2A,2 | 
[V:4] A,,2^G,,2A,,2A,,2 [|] 
[V:1] d2d2B2B2 | 
[V:2] F2^G2D2EF | 
[V:3] A,2B,2B,4 | 
[V:4] D,2G,,2G,3F, [|] 
[V:1] c2c4B2 | 
[V:2] G2F2>E2E4 | 
[V:3] EDCB,A,2B,2 | 
[V:4] E,2F,4G,2 [|] 
[V:1] A4^G2B2 | 
[V:2] D2E2G2 | 
[V:3] C2A,2B,2E2 | 
[V:4] F,4E,2E,2 [|] 
[V:1] A2G^FG2c4 | 
[V:2] E2F2E2E3 | 
[V:3] E2DCB,2C3 | 
[V:4] ^C,2D,2E,2A,4 [|] 
[V:1] B2A2GA | 
[V:2] FG2CDE4 | 
[V:3] DE2A,2B,2 | 
[V:4] G,2F,2E,4 [|] 
[V:1] BAA4^G2 | 
[V:2] D2E3D | 
[V:3] ^G,2A,2B,4 | 
[V:4] F,2E,4 [|] 
[V:1] A2A4A2 | 
[V:2] ^C2E4E2 | 
[V:3] A,2C4C2 | 
[V:4] A,,2A,,4A,,2 [|] 
[V:1] c2_B4B2 | 
[V:2] F2D2G3F | 
[V:3] A,2D4D2 | 
[V:4] F,,2G,,4G,,2 [|] 
[V:1] A2E4G2 | 
[V:2] EDCB,A,B,C2 | 
[V:3] ^C2E4E2 | 
[V:4] A,,2C,4C,2 [|] 
[V:1] F4F4 | 
[V:2] A,4D3C | 
[V:3] D2>C2B,A,A,2 | 
[V:4] D,4D,4 [|] 
[V:1] E8 | 
[V:2] B,2>A,2B,CB,2 | 
[V:3] A,2G,^F,G,A,2G, | 
[V:4] E,8 [|] 
[V:1] E8 | 
[V:2] ^C8 | 
[V:3] A,8 | 
[V:4] A,,8 | 


